X:32
T:Polska ur Svenska Folkdansar
T:Svenska Folkdansar H2 nr 32
B:Traditioner av Svenska Folkdansar Häfte 2, nr 32
R:Polska
Z:Nils L
M:3/4
L:1/8
K:G
c>c B2 (dc) | ((3ABA) (G2 B)z/2d/2 | cc B2 (dc) | ((3ABA) (G2>B)z ]]
|: c>c B2 c>d | e>e (d2 B2) | c>c B2 (d>c) | (3ABA G4 :|

